X: 315
T: Zhong yangyan
L: 1/8
M: 2/4
K: G
B A G E [I:setbarnb 1]| 
d e d B | 
d A/ B/ G F | 
EB,3 | 
d e d B | 
d A/ B/ G F | 
E/ D/ E A E/ F/ | 
ED3 |]

@@@ Tune index: 9189
